!! 00046] TT[KA
!! NN
!!!OTL: Sixiang qi
!!!ARE: Asia, China,Taiwan, Hengchun
!! Ethnic Group: Han
!! IV, 634
!!!SCT: C0449
!!!YEM: Copyright 1995, estate of Helmut Schaffrath.
**kern
*ICvox
*Ivox
*M2/4
*k[]
*C:
{8g
8d
8cc
16a
16cc
=1
4.dd
8ee}
=2
{4g
4d
=3
8ee
16dd
16ee
8dd
8cc
=4
8.a
16cc
8g
16e
16g
=5
2a}
=6
{4a
8cc
8a
=7
8cc
16dd
16ee
8dd
16cc
16a
=8
8g
4g
8cc
=9
16a
16cc
16a
16g
8d
16d
16e
=10
2g}
=11
{8g
16a
16cc
8a
8g
=12
4d
8cc
8ee
=13
8.dd
16ee
16dd
16cc
16a
16cc
=14
4a
8g
16a
16g
=15
2d}
=16
{4a
8cc
8a
=17
8cc
16dd
16ee
8dd
16cc
16a
=18
8g
4g
8cc
=19
16a
16cc
16a
16g
8d
8e
=20
2g}
==
!!!AGN: Qingge
!! wird auf Dialekt gesungen (Sued Fujian). Auch von Leuten, die in der
!!    Ming-Dynastie nach Taiwan kamen und damit an ihre Heimat denken.
!!!ONB: ESAC (Essen Associative Code) Database: CHINA_064
!!!AMT: simple duple
!!!AIN: vox
!!!EED: Helmut Schaffrath
!!!EEV: 1.0
*-
